X: 24713
T: Macroom Fling, The
R: barndance
M: 4/4
K: Dmajor
|:DB,|A,3 B, DEFD|DEFD EDB,D|A,3 B, DEFA|dBAF EDB,D|
A,3 B, DEFD|DEFD EDB,D|A,3 B, DEFA|dBAF D2:|
|:FA|d3 B A2 dB|A2 FD EDB,D|dcdB ABde|fedf e2 de|
[1 fddf edBc|dBAF EDB,D|A,3 B, DEFA|dBAF D2:|
[2 a3 f edBc|dBAF EDB,D|A,3 B, DEFA|dBAF D2||

